icons/svg/paint-bucket.svg

<svg width="24" height="24" viewBox="0 0 24 24" fill="none" xmlns="http://www.w3.org/2000/svg">
<path d="M18.6766 13.3499L16.7536 16.5199C15.7689 18.6125 18.0679 20.7264 20.0707 19.5701C21.2001 18.9181 21.587 17.474 20.935 16.3446L18.6766 13.3499Z" stroke="currentColor" stroke-width="1.5" stroke-linejoin="round"/>
<path d="M8.77789 3.5579L15.75 10.53M8.77789 3.5579L4.38009 7.95569C3.479 8.85679 3.02845 9.30734 2.85964 9.82687C2.7854 10.0554 2.74828 10.2927 2.74828 10.53M8.77789 3.5579L7.71892 2.49896M15.75 10.53L11.3522 14.9278C10.4511 15.8289 10.0006 16.2794 9.48102 16.4483C9.02403 16.5967 8.53175 16.5967 8.07475 16.4483C7.55521 16.2794 7.10467 15.8289 6.20357 14.9278L4.38009 13.1043C3.479 12.2032 3.02845 11.7527 2.85964 11.2331C2.7854 11.0046 2.74828 10.7673 2.74828 10.53M15.75 10.53L5.84375 10.53H2.74828" stroke="currentColor" stroke-width="1.5" stroke-linecap="round" stroke-linejoin="round"/>
<path d="M12.9358 20.501L3.74828 20.501" stroke="currentColor" stroke-width="1.5" stroke-linecap="round" stroke-linejoin="round"/>
</svg>

<svg xmlns="http://www.w3.org/2000/svg" width="24" height="24" fill="none" viewBox="0 0 24 24"><path stroke="currentColor" stroke-linejoin="round" stroke-width="1.5" d="m18.677 13.35-1.923 3.17c-.985 2.093 1.314 4.206 3.317 3.05a2.36 2.36 0 0 0 .864-3.225z"/><path stroke="currentColor" stroke-linecap="round" stroke-linejoin="round" stroke-width="1.5" d="m8.778 3.558 6.972 6.972M8.778 3.558 4.38 7.956c-.901.9-1.352 1.351-1.52 1.87a2.3 2.3 0 0 0-.112.704m6.03-6.972-1.06-1.059m8.032 8.031-4.398 4.398c-.9.9-1.351 1.351-1.871 1.52-.457.149-.95.149-1.406 0-.52-.169-.97-.62-1.871-1.52L4.38 13.104c-.901-.9-1.352-1.351-1.52-1.87a2.3 2.3 0 0 1-.112-.704m13.002 0H2.748m10.188 9.971H3.748"/></svg>
